X: 1950
T: Under the Willow No 2
B: australian traditional tunes wiki
M:3/4
L:1/8
R: Waltz
Q: 1/4=100
K:G
V:1 
|:"G"B2 G2 G2|B2 G2 GB|"C"g2 f2 (3efe|"D7"d4 c2|"G"B2 d>B "C"c2|"G"B2 G4|1"Am"G2 c2 B2|"D7"A4 A>c:|2"D7"A2 F2 A2|"G"G4 d2||
"G"g2 d2 g2|"D7"f4 (3efe|"G"d2 g>d "C"e2|"D7"d4 c2|"G"B2 D2 D2|B2 D2 G2|B2 c2 B2|"D7"A4 e>f|
"G"g2 d2 g2|"D7"f4 (3efe|"G"d2 g>d "C"e2|"D7"d4 c2|"G"B2 G2 G2|"D7"c2 F2 A2|"G"G6-|G6||
% abcbook-tune_id 6342d5be34116feea774a63a


% abcbook-boost 0
% abcbook-tablature 
% abcbook-transpose 
% abcbook-lastupdated 1665324489810
% abcbook-soundfonts 
% abcbook-repeats 1
% NFF Book 2017
% Bush Traditions recording played by Ingrid Wangel

